modules/feathericon/icons/link.svg

<?xml version="1.0" encoding="UTF-8"?>
<svg width="24px" height="24px" viewBox="0 0 24 24" version="1.1" xmlns="http://www.w3.org/2000/svg" xmlns:xlink="http://www.w3.org/1999/xlink">
    <!-- Generator: sketchtool 52.2 (67145) - http://www.bohemiancoding.com/sketch -->
    <title>link</title>
    <desc>Created with sketchtool.</desc>
    <g id="web-app" stroke="none" stroke-width="1" fill="none" fill-rule="evenodd">
        <g id="link" fill="#000000">
            <path d="M11.8739825,11 L12.1260175,11 C12.5700603,9.27477279 14.1361606,8 16,8 L18,8 C20.209139,8 22,9.790861 22,12 C22,14.209139 20.209139,16 18,16 L16,16 C14.1361606,16 12.5700603,14.7252272 12.1260175,13 L11.8739825,13 C11.4299397,14.7252272 9.86383943,16 8,16 L6,16 C3.790861,16 2,14.209139 2,12 C2,9.790861 3.790861,8 6,8 L8,8 C9.86383943,8 11.4299397,9.27477279 11.8739825,11 Z M9.75024572,11.0314412 C9.40913271,10.4163437 8.7531875,10 8,10 L6,10 C4.8954305,10 4,10.8954305 4,12 C4,13.1045695 4.8954305,14 6,14 L8,14 C8.7531875,14 9.40913271,13.5836563 9.75024572,12.9685588 C9.31881424,12.8576336 9,12.4660483 9,12 C9,11.5339517 9.31881424,11.1423664 9.75024572,11.0314412 Z M14,12.9685588 C14.341113,13.5836563 14.9970582,14 15.7502457,14 L17.7502457,14 C18.8548152,14 19.7502457,13.1045695 19.7502457,12 C19.7502457,10.8954305 18.8548152,10 17.7502457,10 L15.7502457,10 C14.9970582,10 14.341113,10.4163437 14,11.0314412 C14.4314315,11.1423664 14.7502457,11.5339517 14.7502457,12 C14.7502457,12.4660483 14.4314315,12.8576336 14,12.9685588 Z" id="Shape"></path>
        </g>
    </g>
</svg>

<svg width="24" height="24" viewBox="0 0 24 24" xmlns="http://www.w3.org/2000/svg"><path d="M11.874 11h.252c.444-1.725 2.01-3 3.874-3h2a4 4 0 1 1 0 8h-2a4.002 4.002 0 0 1-3.874-3h-.252A4.002 4.002 0 0 1 8 16H6a4 4 0 1 1 0-8h2a4.002 4.002 0 0 1 3.874 3zm-2.124.031A2 2 0 0 0 8 10H6a2 2 0 1 0 0 4h2a2 2 0 0 0 1.75-1.031 1 1 0 0 1 0-1.938zM14 12.97A2 2 0 0 0 15.75 14h2a2 2 0 1 0 0-4h-2A2 2 0 0 0 14 11.031a1 1 0 0 1 0 1.938z" fill="#000" fill-rule="evenodd"/></svg>
